symbols/web/add_comment/materialsymbolsoutlined/add_comment_wght100grad200fill1_20px.svg

<svg xmlns="http://www.w3.org/2000/svg" height="20" width="20"><path d="M9.396 11.125h1.208v-2.5h2.5V7.417h-2.5v-2.5H9.396v2.5h-2.5v1.208h2.5Zm-7.313 6V3.708q0-.791.542-1.333.542-.542 1.333-.542h12.084q.791 0 1.333.542.542.542.542 1.333v8.667q0 .792-.542 1.333-.542.542-1.333.542H4.958Z"/></svg>

<svg xmlns="http://www.w3.org/2000/svg" height="20" width="20"><path d="M9.396 11.125H10.604V8.625H13.104V7.417H10.604V4.917H9.396V7.417H6.896V8.625H9.396ZM2.083 17.125V3.708Q2.083 2.917 2.625 2.375Q3.167 1.833 3.958 1.833H16.042Q16.833 1.833 17.375 2.375Q17.917 2.917 17.917 3.708V12.375Q17.917 13.167 17.375 13.708Q16.833 14.25 16.042 14.25H4.958Z"/></svg>
